assets/icons/store.svg

<svg width="20" height="20" viewBox="0 0 20 20" fill="none" xmlns="http://www.w3.org/2000/svg">
<path d="M2.5 9.15625V12.9108C2.5 15.2706 2.5 16.4506 3.23223 17.1837C3.96447 17.9168 5.14297 17.9168 7.5 17.9168H12.5C14.857 17.9168 16.0355 17.9168 16.7677 17.1837C17.5 16.4506 17.5 15.2706 17.5 12.9108V9.15625" stroke="#7F7F7F" stroke-width="1.5"/>
<path d="M12.5 14.1475C11.9299 14.6535 11.0223 14.9808 9.99998 14.9808C8.97764 14.9808 8.07008 14.6535 7.5 14.1475" stroke="#7F7F7F" stroke-width="1.5" stroke-linecap="round"/>
<path d="M14.8325 2.08525L5.12762 2.10949C3.67915 2.03487 3.30776 3.15163 3.30776 3.69754C3.30776 4.18579 3.24489 4.89759 2.35713 6.23539C1.46937 7.57319 1.53608 7.9706 2.03669 8.89672C2.45216 9.66539 3.50894 9.96564 4.05995 10.0161C5.81012 10.056 6.66164 8.54255 6.66164 7.47883C7.52986 10.1516 9.99907 10.1516 11.0992 9.84589C12.2016 9.53972 13.1458 8.44372 13.3687 7.47883C13.4986 8.67797 13.8929 9.37764 15.058 9.85847C16.2648 10.3565 17.3027 9.5953 17.8234 9.1073C18.3442 8.61939 18.6783 7.53614 17.7501 6.34555C17.1099 5.52448 16.8431 4.75097 16.7555 3.94928C16.7047 3.48475 16.6601 2.9856 16.3337 2.66796C15.8567 2.20376 15.1724 2.06291 14.8325 2.08525Z" stroke="#7F7F7F" stroke-width="1.5" stroke-linecap="round" stroke-linejoin="round"/>
</svg>

<svg xmlns="http://www.w3.org/2000/svg" width="20" height="20" fill="none" viewBox="0 0 20 20"><path stroke="#7f7f7f" stroke-width="1.5" d="M2.5 9.156v3.755c0 2.36 0 3.54.732 4.273s1.911.733 4.268.733h5c2.357 0 3.535 0 4.268-.733s.732-1.913.732-4.273V9.156"/><path stroke="#7f7f7f" stroke-linecap="round" stroke-width="1.5" d="M12.5 14.148c-.57.505-1.478.833-2.5.833s-1.93-.328-2.5-.833"/><path stroke="#7f7f7f" stroke-linecap="round" stroke-linejoin="round" stroke-width="1.5" d="m14.833 2.085-9.705.024c-1.449-.074-1.82 1.043-1.82 1.589 0 .488-.063 1.2-.95 2.537-.889 1.338-.822 1.736-.321 2.662.415.768 1.472 1.069 2.023 1.12 1.75.039 2.602-1.474 2.602-2.538.868 2.673 3.337 2.673 4.437 2.367 1.103-.306 2.047-1.402 2.27-2.367.13 1.199.524 1.899 1.689 2.38 1.207.498 2.245-.264 2.765-.752.521-.488.855-1.57-.073-2.761-.64-.822-.907-1.595-.994-2.397-.051-.464-.096-.963-.422-1.281-.477-.464-1.162-.605-1.501-.583"/></svg>
